!!!!SEGMENT: pl-kk--kk-i-68--005_anonim-missa-sanctus.krn
!!!id: 17xx:2277
!!!COM: Anonim
!!!OTL: Missa – Sanctus
!!!PDT:
!!!SMS-siglum: PL-Kk
!!!SMS-shelfmark: Kk.I.68
!!!NIFC-rismID: 1001154624
!!!URL-scan: http://repozytorium.nifc.pl/skany/pl-kk-nut--i-68
!!!ONB-nifc: UWAGA: części Mszy: 1. Protexisti me, 2. Kyrie, 3. Alleluia, 4. Posuisti Domine, 5. Sanctus, 6. Benedictus, 7. Agnus Dei, 8. Dona nobis, 9. Deo gratias
!!!SMS-variant: Baſso PL-Kk Kk.I.68:0012
!!!SMS-altvar: Baſso PL-Kk Kk.I.68:0017
**kern	**text	**kern	**text	**kern	**text
*part3	*part3	*part2	*part2	*part1	*part1
*staff3	*staff3	*staff2	*staff2	*staff1	*staff1
*I"Baſso	*	*I"Tenore Secundo	*	*I"Tenore Primo	*
*I'B	*	*I'T 2	*	*I'T 1	*
*clefF4	*	*clefC4	*	*clefC4	*
*k[]	*	*k[]	*	*k[]	*
*M2/2	*	*M2/2	*	*M2/2	*
*met(c|)	*	*met(c|)	*	*met(c|)	*
=1	=1	=1	=1	=1	=1
0r	.	2.G/	San-	4c\	San-
.	.	.	.	4B\	.
.	.	.	.	4c\	.
.	.	4B\	.	4d\	.
=2-	=2	=2	=2	=2	=2
.	.	4c\	.	4e\	.
.	.	4B\	.	4d\	.
.	.	4c\	.	4e\	.
.	.	4d\	.	4f\	.
=3	=3	=3	=3	=3	=3
4C/	San-	4e\	.	4g\	.
4D/	.	4d\	.	4f\	.
4E/	.	4c\	.	4e\	.
4G\	.	4B\	.	4d\	.
=4	=4	=4	=4	=4	=4
*	*	*2\right	*	*2\right	*
2C/	-ctus	2c\	-ctus	2e\	-ctus
2r	.	2r	.	2r	.
=5	=5	=5	=5	=5	=5
1r	.	4G/	San-	4B\	San[c]-
.	.	4F#X/	.	4A\	.
.	.	4G/	.	4B\	.
.	.	4A/	.	4c\	.
!	!	!	!	!LO:LB:g=original	!
=6	=6	=6	=6	=6	=6
1G	San-	4B\	.	4d\	.
.	.	4A\	.	4c\	.
.	.	4B\	.	4d\	.
.	.	4c\	.	4e\	.
=7	=7	=7	=7	=7	=7
*2\right	*	*	*	*	*
2.G\	.	4d\	.	4f\	.
.	.	4c\	.	4e\	.
.	.	4B\	.	4d\	.
4D\	.	4A\	.	4c\	.
!	!	!LO:PB:g=original	!	!	!
=8	=8	=8	=8	=8	=8
2G\	-ctus	2B\	-ctus	2d\	-tus
*	*ij	*	*ij	*	*
4G\	San-	4B\	San-	4d\	Sanc-
4G\	-ctus	4B\	-ctus	4d\	-tus
*	*Xij	*	*Xij	*	*
=9	=9	=9	=9	=9	=9
2E\	Do-	2G/	Do-	2e\	Do-
4C/	-mi-	4G/	-mi-	4e\	-mi-
4C/	-nus	4G/	-nus	4e\	-nus
!LO:LB:g=original	!	!	!	!	!
=10	=10	=10	=10	=10	=10
2G\	De-	2d\	De-	2f\	De-
2c\	-us	2c\	-us	2e\	-us
=11	=11	=11	=11	=11	=11
2.G\	Sa-	4B\	Sa-	4d\	sa-
.	.	4c\	.	4e\	.
.	.	4d\	.	4f\	.
4G\	-ba-	4c\	-ba-	4e\	-ba-
=12	=12	=12	=12	=12	=12
1G	-oth	1B	-oth	1d	-oth
!	!	!	!	!LO:LB:g=original	!
=13||	=13||	=13||	=13||	=13||	=13||
2G\	Ple-	2B\	Ple-	2d\	Ple-
4G\	-ni	4B\	-ni	4d\	-ni
4F\	sunt	4B\	sunt	4d\	sunt
=14	=14	=14	=14	=14	=14
4E\	cae-	4c\	cae-	4e\	cae-
4D\	.	4d\	.	4f\	.
2C/	-li	2e\	-li	2g\	-li
!	!	!LO:LB:g=original	!	!	!
=15	=15	=15	=15	=15	=15
2C/	cae-	2e\	cae-	2g\	cae-
4F\	-li	4d\	-li	4f\	-li
4F#X\	et	4c\	et	4e\	et
=16	=16	=16	=16	=16	=16
2G\	ter-	2c\	ter-	2e\	ter-
2G\	-ra	2B\	-ra	2d\	-ra
!LO:LB:g=original	!	!	!	!	!
=17	=17	=17	=17	=17	=17
2G\	glo-	2d\	glo-	2f\	glo-
4G\	-ri-	4c\	-ri-	4e\	-ri-
4G\	-a	4B\	-a	4d\	-a
=18	=18	=18	=18	=18	=18
2C/	glo-	2G/	glo-	2e\	glo-
4D/	-ri-	4B/	-ri-	4d\	-ri-
4E/	-a	4G/	-a	4c\	-a
=19	=19	=19	=19	=19	=19
2F\	tu-	2A\	tu-	1d	tu-
2G\	.	2B\	.	.	.
=20	=20	=20	=20	=20	=20
!	!	!	!	!LO:N:vis=1.	!
1C	-a	1G	-a	1e	-a
!LO:LB:g=original	!	!LO:LB:g=original	!	!LO:PB:g=original	!
=21||	=21||	=21||	=21||	=21||	=21||
*M2/2	*	*M2/2	*	*M2/2	*
*met(c|)	*	*met(c|)	*	*met(c|)	*
4G\	O-	4d\	O-	4G/	O-
=22	=22	=22	=22	=22	=22
4C/	-san-	2e\	-san-	2c\	-san-
4D/	.	.	.	.	.
4E/	-na	4e\	-na	4c\	-na
4C/	o-	4e\	o-	4c\	o-
=23	=23	=23	=23	=23	=23
2G\	-san-	(4e\	-san-	(4c\	-san-
.	.	4d\)	.	4B\)	.
4G\	-na	4d\	-na	4B\	-na
4G\	o-	4B\	o-	4d\	o-
=24	=24	=24	=24	=24	=24
4c\	-san-	4c\	-san-	4e\	-san-
4G\	-na	4c\	-na	4e\	-na
4E\	in	4c\	in	4e\	in
4C/	ex-	4c\	ex-	4e\	ex-
=25	=25	=25	=25	=25	=25
2G\	-cel-	4c\	-cel-	4e\	-cel-
.	.	4B\	.	4d\	.
2G\	-sis	2B\	-sis	2d\	-sis
=26	=26	=26	=26	=26	=26
1G	O-	2r	.	2r	.
.	.	4G/	O-	4B\	O-
.	.	4A/	.	4c\	.
=27	=27	=27	=27	=27	=27
2G\	-san-	4B\	-san-	4d\	-san-
.	.	4c\	.	4e\	.
2G\	-na	2d\	-na	2f\	-na
!LO:PB:g=original	!	!LO:LB:g=original	!	!LO:LB:g=original	!
=28	=28	=28	=28	=28	=28
4C\	in	4e\	in	(4g\	in
4D\	.	4d\	.	4f\)	.
4E\	ex-	4c\	ex-	(4e\	ex-
4F\	.	4B\	.	4d\)	.
=29	=29	=29	=29	=29	=29
1G	-cel-	2c\	-cel-	2e\	-cel-
.	.	2B\	.	2d\	.
=30	=30	=30	=30	=30	=30
2C/	-sis	2c\	-sis	2e\	-sis
2G\	O-	4G\	o-	4B\	o-
.	.	4A\	.	4c\	.
=31	=31	=31	=31	=31	=31
2G\	-san-	4B\	-san-	4d\	-san-
.	.	4c\	.	4e\	.
2G\	-na	2d\	-na	2f\	-na
=32	=32	=32	=32	=32	=32
4C/	in	4e\	in	4g\	in
4D/	.	4d\	.	4f\	.
4E\	ex-	4c\	ex-	4e\	ex-
4F\	.	4B\	.	4d\	.
=33	=33	=33	=33	=33	=33
2G\	-cel-	2c\	-cel-	2e\	-cel-
2GG/	.	2B\	.	2d\	.
=34	=34	=34	=34	=34	=34
1C	-sis	1G	-sis	1e	-sis
!LO:LB:g=original	!	!LO:LB:g=original	!	!LO:LB:g=original	!
==	==	==	==	==	==
*-	*-	*-	*-	*-	*-
!!!system-decoration: [(s1,s2,s3)]
!!!ENC: Tomasz Grochalski
!!!END: 2021-07-09
!!!ENC: Marta Chmielewska
!!!END: 2021-08-06
